X:1
T:Sean Sullivan
M:4/4
L:1/8
K:C
 G2| C2D-E D2 B,2| C2E-G A2 c2| G2F-E F2 G2| A2 G2 D3| B,| C2 DE D2 B,2|\
 C2E-G A2 c2| G2 EC DD F2| D2 B,2| C4-| C6 G2| A2 B2 c3 A| G2 D2 E3 G|\
 FF EE D3 A| G2 EC D3 G| AA B2 c2 AA| G2 D2 E3 E| F2 FF E2 CC| B,A, G,2 A,4-|\
 A,4 z4| z4 G2 A2| _B2 BB A2 AA| G2 GAG-E C2-| C6F-G| _B2 BB A2 AA|\
 G2 cB c4-| c6| GA| _B2 BB A2 AA| G2 GA GE C2-| C6 E2| D2 EF D2| D2-|\
 D6 C2| B,C D2 C4|

